X: 14082
T: ROSAMOND'S HORNPIPE
C: Bob McQuillen May'08
B: Bob's Note Book 14 #82
%R: hornpipe, reel
%D:2008
Z: 2020 John Chambers <jc:trillian.mit.edu>
M: C
L: 1/8
K: D
FG \
| A2FA B2GB | ABAG FED2 | E2EF GFE2 | FGAB A2FG |
| A2FA B2dB | ABAG FEDF | E2EF GABc | d2D2 D2  :|
|: cd \
| B2cd edcB | A2AB AGFA | B2cd edcB | AFDF E2FE |
| D2DE FDFA | d2de fed2 | BdcB cdec | d2f2 d2  :|
%%begintext align
%% Owen
%% Iselin from Nelson has a nifty wife named
%% Rosamond, who, like her husband and sweet
%% little daughter, Ingrid, is awfully nice to
%% this writer. I think that rates her a
%% tune, don't you? You do? O.K. So here it
%% is, with love from Bob.
%%endtext

%%sep 1 1 500

%%sep 1 1 500

